modules/devicons/icons/magento.svg

<?xml version="1.0" encoding="utf-8"?>
<!-- Generated by IcoMoon.io -->
<!DOCTYPE svg PUBLIC "-//W3C//DTD SVG 1.1//EN" "http://www.w3.org/Graphics/SVG/1.1/DTD/svg11.dtd">
<svg version="1.1" xmlns="http://www.w3.org/2000/svg" xmlns:xlink="http://www.w3.org/1999/xlink" width="32" height="32" viewBox="0 0 32 32">
<path fill="#444444" d="M26.941 10.161l-10.934-6.753-10.966 6.764v12.228l2.924 1.743v-12.287l8.041-4.992 8.027 4.992v12.317l2.924-1.772v-12.228zM17.595 15.458v10.073l-1.588 1.004-1.602-1.004v-14.325l-3.574 2.215v12.524l5.176 3.22 5.162-3.22v-12.524l-3.574-2.215z"></path>
</svg>

<svg xmlns="http://www.w3.org/2000/svg" width="32" height="32"><path fill="#444" d="M26.941 10.161L16.007 3.408 5.041 10.172V22.4l2.924 1.743V11.856l8.041-4.992 8.027 4.992v12.317l2.924-1.772V10.173zm-9.346 5.297v10.073l-1.588 1.004-1.602-1.004V11.206l-3.574 2.215v12.524l5.176 3.22 5.162-3.22V13.421l-3.574-2.215z"/></svg>
